specification/sources/images/hand_grip_pose.svg

<svg xmlns="http://www.w3.org/2000/svg" xmlns:xhtml="http://www.w3.org/1999/xhtml" width="930" height="744" style="background-color:#fff" viewBox="-0.5 -0.5 930 744"><path fill="none" stroke="red" stroke-miterlimit="10" stroke-width="7" d="m244 401 119.45 6.98" pointer-events="stroke"/><path fill="red" stroke="red" stroke-miterlimit="10" stroke-width="7" d="m373.19 408.54-13.36 5.73 3.62-6.29-2.86-6.68Z" pointer-events="all"/><path fill="none" stroke="#3f3" stroke-miterlimit="10" stroke-width="7" d="m249 401-34.5 73.11" pointer-events="stroke"/><path fill="#3f3" stroke="#3f3" stroke-miterlimit="10" stroke-width="7" d="m210.34 482.92-.33-14.53 4.49 5.72 7.27-.17Z" pointer-events="all"/><path fill="none" stroke="#00f" stroke-miterlimit="10" stroke-width="7" d="m249 404 7.59 94.48" pointer-events="stroke"/><path fill="#00f" stroke="#00f" stroke-miterlimit="10" stroke-width="7" d="m257.37 508.2-7.52-12.44 6.74 2.72 6.22-3.76Z" pointer-events="all"/><path fill="none" stroke="#4d4d4d" stroke-miterlimit="10" stroke-width="7" d="M217 581q79-65 104.5-125.5t70-117.5 46.5-75-26.5-42.5-83.5 38T197 325" pointer-events="stroke"/><path fill="none" stroke="#999" stroke-miterlimit="10" stroke-width="7" d="M256 570q0 53-15.5 90.5T181 739m114-460q-2-14-23-3t-46 38m116 112q15 89-76 108" pointer-events="stroke"/><path fill="none" stroke="#999" stroke-miterlimit="10" stroke-width="7" d="M326 514q-3 43-107 71m129-360q-34-31-63-33.5t-107 26T72 276 38.5 377 3 625" pointer-events="stroke"/><path fill="none" stroke="#4d4d4d" stroke-dasharray="2 6" stroke-miterlimit="10" stroke-width="2" d="M280 702 204 1m511 727L784 4" pointer-events="stroke"/><path fill="none" d="M167 497h35v30h-35z" pointer-events="all"/><switch transform="translate(-.5 -.5)"><foreignObject width="100%" height="100%" pointer-events="none" requiredFeatures="http://www.w3.org/TR/SVG11/feature#Extensibility" style="overflow:visible;text-align:left"><xhtml:div style="display:flex;align-items:unsafe center;justify-content:unsafe center;width:33px;height:1px;padding-top:512px;margin-left:168px"><xhtml:div data-drawio-colors="color: #00CC66;" style="box-sizing:border-box;font-size:0;text-align:center"><xhtml:div style="display:inline-block;font-size:22px;font-family:sans-serif;color:#0c6;line-height:1.2;pointer-events:all;font-weight:700;white-space:normal;overflow-wrap:normal">Y</xhtml:div></xhtml:div></xhtml:div></foreignObject><text x="185" y="519" fill="#0C6" font-family="sans-serif" font-size="22" font-weight="bold" text-anchor="middle">Y</text></switch><path fill="none" d="M868 387h35v30h-35z" pointer-events="all"/><switch transform="translate(-.5 -.5)"><foreignObject width="100%" height="100%" pointer-events="none" requiredFeatures="http://www.w3.org/TR/SVG11/feature#Extensibility" style="overflow:visible;text-align:left"><xhtml:div style="display:flex;align-items:unsafe center;justify-content:unsafe center;width:33px;height:1px;padding-top:402px;margin-left:869px"><xhtml:div data-drawio-colors="color: #FF0000;" style="box-sizing:border-box;font-size:0;text-align:center"><xhtml:div style="display:inline-block;font-size:22px;font-family:sans-serif;color:red;line-height:1.2;pointer-events:all;font-weight:700;white-space:normal;overflow-wrap:normal">X</xhtml:div></xhtml:div></xhtml:div></foreignObject><text x="886" y="409" fill="red" font-family="sans-serif" font-size="22" font-weight="bold" text-anchor="middle">X</text></switch><path fill="none" d="M732 542h35v30h-35z" pointer-events="all"/><switch transform="translate(-.5 -.5)"><foreignObject width="100%" height="100%" pointer-events="none" requiredFeatures="http://www.w3.org/TR/SVG11/feature#Extensibility" style="overflow:visible;text-align:left"><xhtml:div style="display:flex;align-items:unsafe center;justify-content:unsafe center;width:33px;height:1px;padding-top:557px;margin-left:733px"><xhtml:div data-drawio-colors="color: #0000FF;" style="box-sizing:border-box;font-size:0;text-align:center"><xhtml:div style="display:inline-block;font-size:22px;font-family:sans-serif;color:#00f;line-height:1.2;pointer-events:all;font-weight:700;white-space:normal;overflow-wrap:normal">Z</xhtml:div></xhtml:div></xhtml:div></foreignObject><text x="750" y="564" fill="#00F" font-family="sans-serif" font-size="22" font-weight="bold" text-anchor="middle">Z</text></switch><path fill="none" d="M790 499h35v30h-35z" pointer-events="all"/><switch transform="translate(-.5 -.5)"><foreignObject width="100%" height="100%" pointer-events="none" requiredFeatures="http://www.w3.org/TR/SVG11/feature#Extensibility" style="overflow:visible;text-align:left"><xhtml:div style="display:flex;align-items:unsafe center;justify-content:unsafe center;width:33px;height:1px;padding-top:514px;margin-left:791px"><xhtml:div data-drawio-colors="color: #00CC66;" style="box-sizing:border-box;font-size:0;text-align:center"><xhtml:div style="display:inline-block;font-size:22px;font-family:sans-serif;color:#0c6;line-height:1.2;pointer-events:all;font-weight:700;white-space:normal;overflow-wrap:normal">Y</xhtml:div></xhtml:div></xhtml:div></foreignObject><text x="808" y="521" fill="#0C6" font-family="sans-serif" font-size="22" font-weight="bold" text-anchor="middle">Y</text></switch><path fill="none" d="M227 522h35v30h-35z" pointer-events="all"/><switch transform="translate(-.5 -.5)"><foreignObject width="100%" height="100%" pointer-events="none" requiredFeatures="http://www.w3.org/TR/SVG11/feature#Extensibility" style="overflow:visible;text-align:left"><xhtml:div style="display:flex;align-items:unsafe center;justify-content:unsafe center;width:33px;height:1px;padding-top:537px;margin-left:228px"><xhtml:div data-drawio-colors="color: #0000FF;" style="box-sizing:border-box;font-size:0;text-align:center"><xhtml:div style="display:inline-block;font-size:22px;font-family:sans-serif;color:#00f;line-height:1.2;pointer-events:all;font-weight:700;white-space:normal;overflow-wrap:normal">Z</xhtml:div></xhtml:div></xhtml:div></foreignObject><text x="245" y="544" fill="#00F" font-family="sans-serif" font-size="22" font-weight="bold" text-anchor="middle">Z</text></switch><path fill="none" d="M394 396h35v30h-35z" pointer-events="all"/><switch transform="translate(-.5 -.5)"><foreignObject width="100%" height="100%" pointer-events="none" requiredFeatures="http://www.w3.org/TR/SVG11/feature#Extensibility" style="overflow:visible;text-align:left"><xhtml:div style="display:flex;align-items:unsafe center;justify-content:unsafe center;width:33px;height:1px;padding-top:411px;margin-left:395px"><xhtml:div data-drawio-colors="color: #FF0000;" style="box-sizing:border-box;font-size:0;text-align:center"><xhtml:div style="display:inline-block;font-size:22px;font-family:sans-serif;color:red;line-height:1.2;pointer-events:all;font-weight:700;white-space:normal;overflow-wrap:normal">X</xhtml:div></xhtml:div></xhtml:div></foreignObject><text x="412" y="418" fill="red" font-family="sans-serif" font-size="22" font-weight="bold" text-anchor="middle">X</text></switch><path fill="none" stroke="#999" stroke-miterlimit="10" stroke-width="7" d="M666 236q65-3 119-4.5t85 25T901 359t6.5 147.5T926 599M629 421q10 49 62 94" pointer-events="stroke"/><path fill="none" stroke="#999" stroke-miterlimit="10" stroke-width="7" d="M733 571q-28 3-57.5-18.5T643 473m25-28q-27-7-34.5-29.5T620 342m97 236q-7 58 56 162" pointer-events="stroke"/><path fill="none" stroke="red" stroke-miterlimit="10" stroke-width="7" d="m746 427 119.43-3.49" pointer-events="stroke"/><path fill="red" stroke="red" stroke-miterlimit="10" stroke-width="7" d="m875.18 423.23-12.81 6.88 3.06-6.6-3.44-6.4Z" pointer-events="all"/><path fill="none" stroke="#00f" stroke-miterlimit="10" stroke-width="7" d="m748 425-13.47 92.61" pointer-events="stroke"/><path fill="#00f" stroke="#00f" stroke-miterlimit="10" stroke-width="7" d="m733.13 527.26-4.56-13.8 5.96 4.15 6.9-2.28Z" pointer-events="all"/><path fill="none" stroke="#4d4d4d" stroke-miterlimit="10" stroke-width="7" d="M775 611q-72-67-92-146.5t-76-141T575.5 223t70 4 75.5 81.5 74 31.5" pointer-events="stroke"/><path fill="none" stroke="#3f3" stroke-miterlimit="10" stroke-width="7" d="m747 428 20.57 63.28" pointer-events="stroke"/><path fill="#3f3" stroke="#3f3" stroke-miterlimit="10" stroke-width="7" d="m770.58 500.56-10.2-10.36 7.19 1.08 5.17-5.1Z" pointer-events="all"/><switch><g requiredFeatures="http://www.w3.org/TR/SVG11/feature#Extensibility"/></switch></svg>

<?xml version="1.0" encoding="UTF-8"?>
<!DOCTYPE svg PUBLIC "-//W3C//DTD SVG 1.1//EN" "http://www.w3.org/Graphics/SVG/1.1/DTD/svg11.dtd">
<svg xmlns="http://www.w3.org/2000/svg" xmlns:xlink="http://www.w3.org/1999/xlink" version="1.1" width="930px" height="744px" viewBox="-0.5 -0.5 930 744" style="background-color: rgb(255, 255, 255);"><defs/><g><path d="M 244 401 L 363.45 407.98" fill="none" stroke="#ff0000" stroke-width="7" stroke-miterlimit="10" pointer-events="stroke"/><path d="M 373.19 408.54 L 359.83 414.27 L 363.45 407.98 L 360.59 401.3 Z" fill="#ff0000" stroke="#ff0000" stroke-width="7" stroke-miterlimit="10" pointer-events="all"/><path d="M 249 401 L 214.5 474.11" fill="none" stroke="#33ff33" stroke-width="7" stroke-miterlimit="10" pointer-events="stroke"/><path d="M 210.34 482.92 L 210.01 468.39 L 214.5 474.11 L 221.77 473.94 Z" fill="#33ff33" stroke="#33ff33" stroke-width="7" stroke-miterlimit="10" pointer-events="all"/><path d="M 249 404 L 256.59 498.48" fill="none" stroke="#0000ff" stroke-width="7" stroke-miterlimit="10" pointer-events="stroke"/><path d="M 257.37 508.2 L 249.85 495.76 L 256.59 498.48 L 262.81 494.72 Z" fill="#0000ff" stroke="#0000ff" stroke-width="7" stroke-miterlimit="10" pointer-events="all"/><path d="M 217 581 Q 296 516 321.5 455.5 Q 347 395 391.5 338 Q 436 281 438 263 Q 440 245 411.5 220.5 Q 383 196 328 258.5 Q 273 321 197 325" fill="none" stroke="#4d4d4d" stroke-width="7" stroke-miterlimit="10" pointer-events="stroke"/><path d="M 256 570 Q 256 623 240.5 660.5 Q 225 698 181 739" fill="none" stroke="#999999" stroke-width="7" stroke-miterlimit="10" pointer-events="stroke"/><path d="M 295 279 Q 293 265 272 276 Q 251 287 226 314" fill="none" stroke="#999999" stroke-width="7" stroke-miterlimit="10" pointer-events="stroke"/><path d="M 342 426 Q 357 515 266 534" fill="none" stroke="#999999" stroke-width="7" stroke-miterlimit="10" pointer-events="stroke"/><path d="M 326 514 Q 323 557 219 585" fill="none" stroke="#999999" stroke-width="7" stroke-miterlimit="10" pointer-events="stroke"/><path d="M 348 225 Q 314 194 285 191.5 Q 256 189 178 217.5 Q 100 246 72 276 Q 44 306 38.5 377 Q 33 448 3 625" fill="none" stroke="#999999" stroke-width="7" stroke-miterlimit="10" pointer-events="stroke"/><path d="M 280 702 L 204 1" fill="none" stroke="#4d4d4d" stroke-width="2" stroke-miterlimit="10" stroke-dasharray="2 6" pointer-events="stroke"/><path d="M 715 728 L 784 4" fill="none" stroke="#4d4d4d" stroke-width="2" stroke-miterlimit="10" stroke-dasharray="2 6" pointer-events="stroke"/><rect x="167" y="497" width="35" height="30" fill="none" stroke="none" pointer-events="all"/><g transform="translate(-0.5 -0.5)"><switch><foreignObject pointer-events="none" width="100%" height="100%" requiredFeatures="http://www.w3.org/TR/SVG11/feature#Extensibility" style="overflow: visible; text-align: left;"><div xmlns="http://www.w3.org/1999/xhtml" style="display: flex; align-items: unsafe center; justify-content: unsafe center; width: 33px; height: 1px; padding-top: 512px; margin-left: 168px;"><div data-drawio-colors="color: #00CC66; " style="box-sizing: border-box; font-size: 0px; text-align: center;"><div style="display: inline-block; font-size: 22px; font-family: Helvetica; color: rgb(0, 204, 102); line-height: 1.2; pointer-events: all; font-weight: bold; white-space: normal; overflow-wrap: normal;">Y</div></div></div></foreignObject><text x="185" y="519" fill="#00CC66" font-family="Helvetica" font-size="22px" text-anchor="middle" font-weight="bold">Y</text></switch></g><rect x="868" y="387" width="35" height="30" fill="none" stroke="none" pointer-events="all"/><g transform="translate(-0.5 -0.5)"><switch><foreignObject pointer-events="none" width="100%" height="100%" requiredFeatures="http://www.w3.org/TR/SVG11/feature#Extensibility" style="overflow: visible; text-align: left;"><div xmlns="http://www.w3.org/1999/xhtml" style="display: flex; align-items: unsafe center; justify-content: unsafe center; width: 33px; height: 1px; padding-top: 402px; margin-left: 869px;"><div data-drawio-colors="color: #FF0000; " style="box-sizing: border-box; font-size: 0px; text-align: center;"><div style="display: inline-block; font-size: 22px; font-family: Helvetica; color: rgb(255, 0, 0); line-height: 1.2; pointer-events: all; font-weight: bold; white-space: normal; overflow-wrap: normal;">X</div></div></div></foreignObject><text x="886" y="409" fill="#FF0000" font-family="Helvetica" font-size="22px" text-anchor="middle" font-weight="bold">X</text></switch></g><rect x="732" y="542" width="35" height="30" fill="none" stroke="none" pointer-events="all"/><g transform="translate(-0.5 -0.5)"><switch><foreignObject pointer-events="none" width="100%" height="100%" requiredFeatures="http://www.w3.org/TR/SVG11/feature#Extensibility" style="overflow: visible; text-align: left;"><div xmlns="http://www.w3.org/1999/xhtml" style="display: flex; align-items: unsafe center; justify-content: unsafe center; width: 33px; height: 1px; padding-top: 557px; margin-left: 733px;"><div data-drawio-colors="color: #0000FF; " style="box-sizing: border-box; font-size: 0px; text-align: center;"><div style="display: inline-block; font-size: 22px; font-family: Helvetica; color: rgb(0, 0, 255); line-height: 1.2; pointer-events: all; font-weight: bold; white-space: normal; overflow-wrap: normal;">Z</div></div></div></foreignObject><text x="750" y="564" fill="#0000FF" font-family="Helvetica" font-size="22px" text-anchor="middle" font-weight="bold">Z</text></switch></g><rect x="790" y="499" width="35" height="30" fill="none" stroke="none" pointer-events="all"/><g transform="translate(-0.5 -0.5)"><switch><foreignObject pointer-events="none" width="100%" height="100%" requiredFeatures="http://www.w3.org/TR/SVG11/feature#Extensibility" style="overflow: visible; text-align: left;"><div xmlns="http://www.w3.org/1999/xhtml" style="display: flex; align-items: unsafe center; justify-content: unsafe center; width: 33px; height: 1px; padding-top: 514px; margin-left: 791px;"><div data-drawio-colors="color: #00CC66; " style="box-sizing: border-box; font-size: 0px; text-align: center;"><div style="display: inline-block; font-size: 22px; font-family: Helvetica; color: rgb(0, 204, 102); line-height: 1.2; pointer-events: all; font-weight: bold; white-space: normal; overflow-wrap: normal;">Y</div></div></div></foreignObject><text x="808" y="521" fill="#00CC66" font-family="Helvetica" font-size="22px" text-anchor="middle" font-weight="bold">Y</text></switch></g><rect x="227" y="522" width="35" height="30" fill="none" stroke="none" pointer-events="all"/><g transform="translate(-0.5 -0.5)"><switch><foreignObject pointer-events="none" width="100%" height="100%" requiredFeatures="http://www.w3.org/TR/SVG11/feature#Extensibility" style="overflow: visible; text-align: left;"><div xmlns="http://www.w3.org/1999/xhtml" style="display: flex; align-items: unsafe center; justify-content: unsafe center; width: 33px; height: 1px; padding-top: 537px; margin-left: 228px;"><div data-drawio-colors="color: #0000FF; " style="box-sizing: border-box; font-size: 0px; text-align: center;"><div style="display: inline-block; font-size: 22px; font-family: Helvetica; color: rgb(0, 0, 255); line-height: 1.2; pointer-events: all; font-weight: bold; white-space: normal; overflow-wrap: normal;">Z</div></div></div></foreignObject><text x="245" y="544" fill="#0000FF" font-family="Helvetica" font-size="22px" text-anchor="middle" font-weight="bold">Z</text></switch></g><rect x="394" y="396" width="35" height="30" fill="none" stroke="none" pointer-events="all"/><g transform="translate(-0.5 -0.5)"><switch><foreignObject pointer-events="none" width="100%" height="100%" requiredFeatures="http://www.w3.org/TR/SVG11/feature#Extensibility" style="overflow: visible; text-align: left;"><div xmlns="http://www.w3.org/1999/xhtml" style="display: flex; align-items: unsafe center; justify-content: unsafe center; width: 33px; height: 1px; padding-top: 411px; margin-left: 395px;"><div data-drawio-colors="color: #FF0000; " style="box-sizing: border-box; font-size: 0px; text-align: center;"><div style="display: inline-block; font-size: 22px; font-family: Helvetica; color: rgb(255, 0, 0); line-height: 1.2; pointer-events: all; font-weight: bold; white-space: normal; overflow-wrap: normal;">X</div></div></div></foreignObject><text x="412" y="418" fill="#FF0000" font-family="Helvetica" font-size="22px" text-anchor="middle" font-weight="bold">X</text></switch></g><path d="M 666 236 Q 731 233 785 231.5 Q 839 230 870 256.5 Q 901 283 901 359 Q 901 435 907.5 506.5 Q 914 578 926 599" fill="none" stroke="#999999" stroke-width="7" stroke-miterlimit="10" pointer-events="stroke"/><path d="M 629 421 Q 639 470 691 515" fill="none" stroke="#999999" stroke-width="7" stroke-miterlimit="10" pointer-events="stroke"/><path d="M 733 571 Q 705 574 675.5 552.5 Q 646 531 643 473" fill="none" stroke="#999999" stroke-width="7" stroke-miterlimit="10" pointer-events="stroke"/><path d="M 668 445 Q 641 438 633.5 415.5 Q 626 393 620 342" fill="none" stroke="#999999" stroke-width="7" stroke-miterlimit="10" pointer-events="stroke"/><path d="M 717 578 Q 710 636 773 740" fill="none" stroke="#999999" stroke-width="7" stroke-miterlimit="10" pointer-events="stroke"/><path d="M 746 427 L 865.43 423.51" fill="none" stroke="#ff0000" stroke-width="7" stroke-miterlimit="10" pointer-events="stroke"/><path d="M 875.18 423.23 L 862.37 430.11 L 865.43 423.51 L 861.99 417.11 Z" fill="#ff0000" stroke="#ff0000" stroke-width="7" stroke-miterlimit="10" pointer-events="all"/><path d="M 748 425 L 734.53 517.61" fill="none" stroke="#0000ff" stroke-width="7" stroke-miterlimit="10" pointer-events="stroke"/><path d="M 733.13 527.26 L 728.57 513.46 L 734.53 517.61 L 741.43 515.33 Z" fill="#0000ff" stroke="#0000ff" stroke-width="7" stroke-miterlimit="10" pointer-events="all"/><path d="M 775 611 Q 703 544 683 464.5 Q 663 385 607 323.5 Q 551 262 575.5 223 Q 600 184 645.5 227 Q 691 270 721 308.5 Q 751 347 795 340" fill="none" stroke="#4d4d4d" stroke-width="7" stroke-miterlimit="10" pointer-events="stroke"/><path d="M 747 428 L 767.57 491.28" fill="none" stroke="#33ff33" stroke-width="7" stroke-miterlimit="10" pointer-events="stroke"/><path d="M 770.58 500.56 L 760.38 490.2 L 767.57 491.28 L 772.74 486.18 Z" fill="#33ff33" stroke="#33ff33" stroke-width="7" stroke-miterlimit="10" pointer-events="all"/></g><switch><g requiredFeatures="http://www.w3.org/TR/SVG11/feature#Extensibility"/><a transform="translate(0,-5)" xlink:href="https://www.diagrams.net/doc/faq/svg-export-text-problems" target="_blank"><text text-anchor="middle" font-size="10px" x="50%" y="100%">Text is not SVG - cannot display</text></a></switch></svg>
